X:33
T:Fifer's Hornpipe
C:Roy Watrous, 1990
S:The Watrous Book, 1992
M:2/4
L:1/16
Q:1/4=90
K:D
%%MIDI program 72
%%MIDI transpose 8
%%MIDI ratio 3 1
A2|d2d2 d2cd|egfe d2ef|gbag fedf|edcB Agfe|d2d2 d2cd|
egfe d2ef|gbag fedc|d2d2 d2::z2|b2gb a2fa|gfed e2fe|dAeA fAgA|
agfe dcBA|d2d2 d2cd|egfe d2ef|gbag fedc|d2d2 d2:|]

